X: 24901
T: Maguire's Favourite
R: polka
M: 2/4
K: Gmajor
dc|:BD DD|Ec c2|c/B/A/G/ FA|Dd d>c|
BD DD|Ec c2|c/B/A/G/ FA|1 G2 Gd/c/:|2 G2 GB/c/||
|:dd ee|dg/d/ BG/B/|dd ee|dg/d/ B2|
gg f2|ee G2|F/G/A/B/ cF|1 AG GB/c/:|2 AG G2||

